X: 2952
T: Barrow Banks
R: hornpipe
M: 4/4
K: Gmajor
|:dc|BDGB cBce|(3dcB gf agfg|ecGc egfg|af (3gfe dedc|
BDGB cBce|(3dcB gf agfg|ecGc egfe|dcAF G2:|
|:B,C|DGBd gfag|bg (3agf gdBG|(3EFG AB cBce|af (3gfe dedc|
BDGB cBce|(3dcB gf agfg|ecGc egfe|dcAF G2:|

